icons/symptom.svg

<svg width="48" height="48" viewBox="0 0 48 48" fill="none" xmlns="http://www.w3.org/2000/svg">
<path fill-rule="evenodd" clip-rule="evenodd" d="M24 13C26.4853 13 28.5 10.9853 28.5 8.5C28.5 6.01472 26.4853 4 24 4C21.5147 4 19.5 6.01472 19.5 8.5C19.5 10.9853 21.5147 13 24 13ZM26.5 8.5C26.5 9.88071 25.3807 11 24 11C22.6193 11 21.5 9.88071 21.5 8.5C21.5 7.11929 22.6193 6 24 6C25.3807 6 26.5 7.11929 26.5 8.5Z" fill="black"/>
<path fill-rule="evenodd" clip-rule="evenodd" d="M12 21H14.3542C15.0593 21.6224 15.9856 22 17 22C17.1693 22 17.3362 21.9895 17.5 21.9691V25.9882L17.5 25.9954L17.4999 28.9158C17.4884 28.9813 17.4622 29.1116 17.4065 29.3222C17.31 29.6867 17.1604 30.164 16.9619 30.7374C16.6855 31.5359 16.3387 32.4512 15.9647 33.3947C15.4168 34.0325 15.0664 34.8448 15.0085 35.7369C14.6202 36.6649 14.2511 37.5229 13.9526 38.2085C13.7447 38.6857 13.5717 39.0778 13.4511 39.3498C13.1697 39.984 12.9717 40.7566 13.0797 41.5327C13.1946 42.3592 13.6496 43.1117 14.5104 43.6041C15.8512 44.371 17.5552 43.9945 18.448 42.7341L19.948 40.6164C19.9889 40.5588 20.0277 40.4997 20.0643 40.4393L20.51 39.7052C21.9706 39.1093 23 37.6749 23 36C23 35.8758 22.9943 35.7529 22.9833 35.6316L24.2499 33.5453L28.4356 40.4393C28.4722 40.4996 28.511 40.5587 28.5519 40.6164L30.0519 42.7341C30.9447 43.9945 32.6487 44.371 33.9895 43.6041C34.8503 43.1117 35.3052 42.3592 35.4202 41.5327C35.5281 40.7566 35.3302 39.984 35.0488 39.3498C34.9282 39.0778 34.7552 38.6857 34.5473 38.2085C34.131 37.2524 33.5779 35.9618 33.0266 34.6141C32.4723 33.2592 31.9335 31.88 31.538 30.7374C31.3395 30.164 31.1899 29.6867 31.0934 29.3222L31.0766 29.2578V26.1898C32.2395 25.3762 33 24.0269 33 22.5C33 21.974 32.9098 21.4692 32.7439 21H36C37.6569 21 39 19.6569 39 18C39 16.3431 37.6569 15 36 15H19.6458C18.9407 14.3776 18.0144 14 17 14C15.9856 14 15.0593 14.3776 14.3542 15H12C10.3431 15 9 16.3431 9 18C9 19.6569 10.3431 21 12 21ZM13.126 17H12C11.4477 17 11 17.4477 11 18C11 18.5523 11.4477 19 12 19H13.126C13.0438 18.6804 13 18.3453 13 18C13 17.6547 13.0438 17.3196 13.126 17ZM19.5 25.9928V21.1227C20.4145 20.3896 21 19.2632 21 18C21 17.6547 20.9562 17.3196 20.874 17H36C36.5523 17 37 17.4477 37 18C37 18.5523 36.5523 19 36 19H31.3287C30.5558 18.3746 29.5716 18 28.5 18C26.0147 18 24 20.0147 24 22.5C24 24.9853 26.0147 27 28.5 27C28.6954 27 28.8878 26.9875 29.0766 26.9634V29.3797C29.0766 29.458 29.0858 29.5361 29.104 29.6122C29.12 29.6789 29.1385 29.7526 29.16 29.834C29.2742 30.2654 29.4413 30.7943 29.6481 31.3916C30.0611 32.585 30.6157 34.0031 31.1755 35.3714C31.7343 36.7373 32.2936 38.0425 32.7137 39.007C32.9236 39.489 33.0984 39.8853 33.2207 40.1609C33.4125 40.5933 33.4782 40.9767 33.4392 41.2572C33.4072 41.4872 33.3047 41.6917 32.9965 41.868C32.5495 42.1237 31.9815 41.9982 31.6839 41.578L30.1839 39.4603C30.1703 39.4412 30.1574 39.4215 30.1452 39.4013L25.1047 31.0995C24.9234 30.8008 24.5993 30.6184 24.2499 30.6184C23.9005 30.6184 23.5765 30.8008 23.3952 31.0995L22.0155 33.3718C21.2822 32.5312 20.2031 32 19 32C18.8753 32 18.7519 32.0057 18.6301 32.0169C18.7076 31.803 18.7817 31.5941 18.8518 31.3916C19.0586 30.7943 19.2257 30.2654 19.3399 29.834C19.4284 29.4996 19.4649 29.2967 19.4808 29.1955C19.4934 29.1323 19.4999 29.0669 19.4999 29V26L19.5 25.9928ZM15.7862 39.007C15.8424 38.8779 15.9012 38.7427 15.962 38.6021C16.4914 39.2197 17.2059 39.6739 18.0195 39.8789L16.816 41.578C16.5184 41.9982 15.9504 42.1237 15.5034 41.868C15.1951 41.6917 15.0926 41.4872 15.0606 41.2572C15.0216 40.9768 15.0873 40.5934 15.2792 40.1609C15.4015 39.8853 15.5763 39.489 15.7862 39.007ZM17 20C18.1046 20 19 19.1046 19 18C19 16.8954 18.1046 16 17 16C15.8954 16 15 16.8954 15 18C15 19.1046 15.8954 20 17 20ZM28.5 25C29.8807 25 31 23.8807 31 22.5C31 21.1193 29.8807 20 28.5 20C27.1193 20 26 21.1193 26 22.5C26 23.8807 27.1193 25 28.5 25ZM19 38C20.1046 38 21 37.1046 21 36C21 34.8954 20.1046 34 19 34C17.8954 34 17 34.8954 17 36C17 37.1046 17.8954 38 19 38Z" fill="black"/>
<path d="M29.9313 7.00005C36.9583 9.45156 42 16.137 42 23.9999C42 29.5234 39.5122 34.4658 35.5959 37.7676L36.8537 39.3232C41.2227 35.6544 44 30.1515 44 23.9999C44 15.264 38.399 7.83624 30.5922 5.11182L29.9313 7.00005Z" fill="black"/>
<path d="M27.3981 41.6797C26.2977 41.8899 25.1617 41.9999 24 41.9999C23.1292 41.9999 22.2728 41.9381 21.435 41.8186L21.1569 43.7994C22.0855 43.9316 23.0348 43.9999 24 43.9999C25.2839 43.9999 26.5395 43.879 27.7561 43.6478L27.3981 41.6797Z" fill="black"/>
<path d="M6 23.9999C6 29.7774 8.72191 34.9191 12.9533 38.2126L11.7497 39.8103C7.03454 36.1516 4 30.4301 4 23.9999C4 15.264 9.601 7.83624 17.4078 5.11182L18.0687 7.00005C11.0417 9.45156 6 16.137 6 23.9999Z" fill="black"/>
</svg>

<svg
  xmlns="http://www.w3.org/2000/svg"
  width="24"
  height="24"
  viewBox="0 0 24 24"
  fill="none"
  stroke="currentColor"
  stroke-width="2"
  stroke-linecap="round"
  stroke-linejoin="round"
>
  <path
    fill-rule="evenodd"
    d="M24 13a4.5 4.5 0 1 0 0-9 4.5 4.5 0 0 0 0 9m2.5-4.5a2.5 2.5 0 1 1-5 0 2.5 2.5 0 0 1 5 0"
    clip-rule="evenodd"
  />
  <path
    fill-rule="evenodd"
    d="M12 21h2.354a3.99 3.99 0 0 0 3.146.97v6.945a5 5 0 0 1-.093.407 21 21 0 0 1-.445 1.415 66 66 0 0 1-.997 2.658 4 4 0 0 0-.957 2.342 189 189 0 0 1-1.557 3.613c-.281.634-.48 1.407-.371 2.183.115.826.57 1.579 1.43 2.071a3 3 0 0 0 3.938-.87l1.5-2.118q.061-.085.116-.177l.446-.734a4 4 0 0 0 2.473-4.073l1.267-2.087 4.186 6.894q.054.09.116.177l1.5 2.118a3 3 0 0 0 3.938.87c.86-.492 1.315-1.245 1.43-2.071.108-.776-.09-1.549-.371-2.183a194 194 0 0 1-2.022-4.736 80 80 0 0 1-1.489-3.877 21 21 0 0 1-.445-1.415l-.016-.064V26.19A4.5 4.5 0 0 0 33 22.5c0-.526-.09-1.03-.256-1.5H36a3 3 0 1 0 0-6H19.646A3.99 3.99 0 0 0 17 14c-1.014 0-1.94.378-2.646 1H12a3 3 0 1 0 0 6m1.126-4H12a1 1 0 1 0 0 2h1.126a4 4 0 0 1 0-2m6.374 8.993v-4.87A3.99 3.99 0 0 0 20.874 17H36a1 1 0 1 1 0 2h-4.671a4.5 4.5 0 1 0-2.252 7.963v2.417a1 1 0 0 0 .027.232l.056.222c.114.431.281.96.488 1.558a81 81 0 0 0 1.527 3.98 180 180 0 0 0 2.046 4.789c.192.432.257.816.218 1.096-.032.23-.134.435-.443.611a1 1 0 0 1-1.312-.29l-1.5-2.118-.039-.059-5.04-8.302a1 1 0 0 0-1.71 0l-1.38 2.273a3.99 3.99 0 0 0-3.385-1.355q.117-.321.222-.625c.207-.598.374-1.127.488-1.558a6 6 0 0 0 .14-.639A1 1 0 0 0 19.5 29v-3.007m-3.714 13.014.176-.405a4 4 0 0 0 2.058 1.277l-1.204 1.699a1 1 0 0 1-1.313.29c-.308-.176-.41-.38-.442-.61-.04-.281.026-.665.218-1.097.123-.276.297-.672.507-1.154M17 20a2 2 0 1 0 0-4 2 2 0 0 0 0 4m11.5 5a2.5 2.5 0 1 0 0-5 2.5 2.5 0 0 0 0 5M19 38a2 2 0 1 0 0-4 2 2 0 0 0 0 4"
    clip-rule="evenodd"
  />
  <path d="M29.931 7C36.958 9.452 42 16.137 42 24a17.96 17.96 0 0 1-6.404 13.768l1.258 1.555C41.223 35.654 44 30.151 44 24c0-8.736-5.601-16.164-13.408-18.888z" />
  <path d="M27.398 41.68a18.158 18.158 0 0 1-5.963.139l-.278 1.98a20.2 20.2 0 0 0 6.6-.151z" />
  <path d="M6 24c0 5.777 2.722 10.92 6.953 14.213L11.75 39.81C7.035 36.152 4 30.43 4 24 4 15.264 9.601 7.836 17.408 5.112L18.068 7C11.043 9.452 6 16.137 6 24" />
</svg>
